X: 200
T:Mr George A Young
B:William Marshall Volume 2nd Of A Collection Of Scottish Melodies (1845)
C:William Marshall
L:1/8
M:4/4
O:Scotland
R:Slow Strathspey
Z:Clark Bernst
%%Page:32 - 2
F:http://richardrobinson.tunebook.org.uk/tune/4043
%%TBL:{"version":1,"type":"tune","id":"4043"}
K:Eb
B [| \
A/G/F/E/ B,3/2E/ Ac B2 | G3/2A/B3/2e/ a3/2g/f3/2F/ | \
B3/2A/GE A/c3/2 B2 | ge g/f/e/d/ e2 eB |
A/G/F/E/ B,3/2E/ Ac B2 | G3/2A/B3/2e/ a3/2g/f3/2F/ | \
B3/2A/GE A/c3/2 B2 | g3/2e/ g/f/e/d/ e2 eB, [|
G,EB,G EBGe | B,FDB FdBf | \
E3/2F/Eg D3/2E/Df | e3/2B/ A/G/F/E/ D/E/F/D/ B,3/2A,/ |
G,EB,G EBGe | B,FDB FdBf | \
e3/2E/ c/B/A/G/ A/B/c/d/ e3/2E/ | F/E/D/C/ B,/C/D/B,/ E2 EB |]

